frontend/src/assets/Board_Coin/Default/yellow-pearl-king-active.svg

<svg width="27" height="27" viewBox="0 0 27 27" fill="none" xmlns="http://www.w3.org/2000/svg">
<g clip-path="url(#clip0_1189_5242)">
<g opacity="0.69">
<path d="M13.6182 26.126C20.5217 26.126 26.1182 20.5296 26.1182 13.626C26.1182 6.72248 20.5217 1.12604 13.6182 1.12604C6.7146 1.12604 1.11816 6.72248 1.11816 13.626C1.11816 20.5296 6.7146 26.126 13.6182 26.126Z" fill="#FFD015"/>
<path d="M13.618 24.2358C19.4776 24.2358 24.2278 19.4856 24.2278 13.626C24.2278 7.76643 19.4776 3.0163 13.618 3.0163C7.75844 3.0163 3.0083 7.76643 3.0083 13.626C3.0083 19.4856 7.75844 24.2358 13.618 24.2358Z" fill="#FFC501"/>
<path d="M19.168 4.57092C20.2246 6.21906 20.8382 8.18087 20.8382 10.2858C20.8382 16.1437 16.0891 20.8955 10.2285 20.8955C8.19236 20.8955 6.29383 20.3232 4.67871 19.3299C6.56348 22.274 9.86251 24.2248 13.6183 24.2248C19.4762 24.2248 24.228 19.4757 24.228 13.6151C24.228 9.79049 22.2029 6.43918 19.1708 4.57367L19.168 4.57092Z" fill="#F5B611"/>
<path d="M4.86849 14.5973C4.86849 9.42455 9.06175 5.23128 14.2345 5.23128C17.2584 5.23128 19.9466 6.66481 21.6581 8.88801C20.0402 6.08149 17.0108 4.19122 13.5384 4.19122C8.36563 4.19122 4.17236 8.38449 4.17236 13.5573C4.17236 15.7062 4.896 17.6845 6.11491 19.2666C5.32248 17.8936 4.87124 16.2978 4.87124 14.6001L4.86849 14.5973Z" fill="#FFD453"/>
</g>
</g>
<circle cx="13.6182" cy="13.126" r="12" stroke="#FFFEFE" stroke-width="2"/>
<path d="M21.9158 11.0407C21.4226 11.7109 21.3727 12.548 21.0663 13.2904C20.9268 13.6267 21.2955 13.8261 21.4275 14.0727C21.8012 14.7753 21.3902 15.4031 20.9343 15.5052C20.1246 15.6846 20.0698 16.153 20.132 16.721C20.2317 17.6378 19.8306 17.9368 18.9785 17.8247C18.1539 17.715 17.2919 18.0414 16.4897 17.6278C16.6491 17.2591 16.9805 17.3314 17.277 17.3264C17.8873 17.3189 18.4952 17.3264 19.1056 17.3114C19.2999 17.3065 19.5864 17.3887 19.6163 17.0822C19.6537 16.7011 19.3398 16.7584 19.1056 16.7559C18.0393 16.7484 16.9705 16.7285 15.9067 16.7559C15.107 16.7758 14.392 16.6114 13.8264 16.0209C13.6022 15.7867 13.4154 15.6846 13.1563 15.9761C12.5309 16.6836 11.7038 16.7808 10.8194 16.7534C9.87517 16.726 8.93095 16.7359 7.98424 16.7534C7.74507 16.7584 7.33898 16.5964 7.32403 17.0025C7.30659 17.4933 7.75753 17.3139 8.01414 17.3139C10.2987 17.3289 12.5858 17.3164 14.8703 17.3264C15.2166 17.3264 15.6202 17.1869 15.8594 17.6004C15.6152 17.9443 15.249 17.8122 14.9326 17.8147C12.5882 17.8247 10.2414 17.7898 7.89953 17.8371C7.06493 17.8546 6.72611 17.5955 6.78092 16.7484C6.81331 16.2153 6.92293 15.6323 6.03352 15.5027C5.65483 15.4479 5.1167 14.8176 5.44307 14.3567C6.13815 13.3776 5.59504 12.5405 5.39822 11.6312C5.30355 11.1902 4.66328 10.6147 5.35338 10.2883C5.94134 10.0118 6.05096 10.7941 6.34992 11.1229C6.57165 11.3646 6.7012 11.7383 7.09234 11.7234C7.55324 11.7084 7.61801 11.2849 7.76749 10.9635C7.79241 10.9087 7.79988 10.8439 7.83227 10.7941C8.07144 10.4403 7.98673 9.78758 8.58964 9.7826C9.10285 9.78011 9.15019 10.3506 9.38936 10.6795C9.47905 10.8016 9.54631 10.9386 9.62604 11.0681C10.1218 11.8479 10.6226 11.8579 11.1408 11.1005C11.3052 10.8589 11.3899 10.5175 11.801 10.5998C11.7512 11.3272 11.4173 11.9276 10.7197 12.1095C9.3769 12.4558 9.22991 11.108 8.60957 10.4129C8.21095 10.9162 8.21593 11.5639 7.76998 11.97C7.23185 12.4633 6.65635 12.0771 6.01857 11.9326C6.13815 12.3312 6.20044 12.6252 6.31504 12.8968C6.7859 14.0054 6.59407 15.6771 7.65289 16.158C8.70922 16.6388 10.1592 16.2626 11.4397 16.2476C12.0576 16.2402 12.516 15.9163 12.952 15.5052C13.226 15.2461 13.2534 15.0817 13.0143 14.7777C12.5808 14.2297 12.1896 13.6492 11.8134 13.0612C11.497 12.5605 11.5967 12.0672 11.9953 11.6461C12.364 11.2575 14.2599 11.1479 14.7532 11.4942C15.1817 11.7956 15.4134 12.2166 15.2664 12.7548C15.2116 12.9541 15.0871 13.1384 14.97 13.3128C14.7333 13.6641 14.4767 14.0054 14.2325 14.3542C13.6271 15.2162 13.6869 15.5002 14.6411 16.006C14.9002 16.143 15.2141 16.2427 15.5056 16.2476C16.415 16.2651 17.3268 16.2277 18.2361 16.2103C18.7269 16.2626 19.427 16.5566 19.6338 16.0434C20.1594 14.7553 20.4933 13.3901 20.9567 11.8878C20.3737 12.0746 20.0075 12.3312 19.5815 12.2441C19.3672 12.1344 19.2501 11.9825 19.3722 11.7333C20.1669 11.9301 20.4659 11.3447 20.8147 10.8315C21.0763 10.4478 21.3005 9.96447 21.9134 10.3108V11.0432L21.9158 11.0407ZM13.5275 14.3866C13.7318 14.1375 14.0482 13.9431 14.0332 13.5819C14.0158 13.2431 13.7791 12.842 13.4801 12.8494C13.1339 12.8569 12.8723 13.2755 12.8872 13.6243C12.8997 13.9307 13.1563 14.2072 13.5275 14.3866ZM13.1339 12.1569C13.1513 11.8928 13.0068 11.7931 12.8 11.8155C12.4163 11.8604 12.1921 12.0771 12.1971 12.4782C12.1971 12.6925 12.2619 13.0164 12.4786 12.9566C12.8424 12.8594 12.9644 12.4508 13.1339 12.1569ZM14.7756 12.3786C14.7532 12.0597 14.5315 11.813 14.1055 11.7981C13.9236 11.7906 13.7069 11.8878 13.7866 12.1145C13.9161 12.4832 14.113 12.8669 14.5041 12.974C14.6735 13.0214 14.7781 12.7099 14.7756 12.3761V12.3786Z" fill="#16140F"/>
<path d="M19.3746 11.736C19.25 11.9851 19.3671 12.1346 19.5838 12.2467C19.5041 12.5855 19.4269 12.9243 19.3496 13.2657C18.7617 13.1162 18.4428 13.4425 18.226 13.9159C17.8872 14.6533 17.6979 15.3933 18.3008 16.1008C18.2634 16.1282 18.241 16.1656 18.241 16.2129C17.3317 16.2304 16.4198 16.2677 15.5105 16.2503C15.219 16.2453 14.9051 16.1456 14.646 16.0086C13.6918 15.5029 13.632 15.2164 14.2374 14.3569C14.4816 14.0106 14.7382 13.6693 14.9748 13.3155C15.0919 13.1411 15.219 12.9542 15.2713 12.7574C15.4183 12.2193 15.1866 11.7983 14.7581 11.4968C14.2648 11.1505 12.3689 11.2601 12.0002 11.6488C11.6016 12.0673 11.5019 12.5631 11.8183 13.0639C12.192 13.6543 12.5856 14.2323 13.0191 14.7804C13.2608 15.0868 13.2334 15.2488 12.9569 15.5079C12.5234 15.9214 12.0625 16.2453 11.4446 16.2503C10.1665 16.2627 8.71658 16.6389 7.65776 16.1606C6.59894 15.6798 6.79077 14.0056 6.31991 12.8994C6.20531 12.6304 6.14302 12.3364 6.02344 11.9353C6.66122 12.0798 7.23423 12.4659 7.77485 11.9726C8.21831 11.5666 8.21831 10.9188 8.61444 10.4156C9.23478 11.1106 9.38177 12.4585 10.7246 12.1122C11.4222 11.9328 11.756 11.3324 11.8059 10.6024C11.8856 10.4031 11.9678 10.2038 12.05 10.007C12.922 9.75535 12.8273 8.71895 13.5473 8.2157C14.1477 9.25708 14.7307 10.3034 15.3461 11.3299C16.0386 12.4834 17.0352 12.4809 17.7377 11.3473C17.9346 11.0309 18.1339 10.717 18.3357 10.3981C18.5997 10.6647 18.5275 11.1331 18.9909 11.1405C19.0482 11.3847 19.1777 11.5815 19.377 11.736H19.3746ZM16.3227 15.4257C17.1099 15.5104 17.4139 14.9099 17.4238 14.3793C17.4338 13.8412 17.1323 13.2632 16.365 13.2806C15.782 13.2931 15.077 13.876 15.204 14.3843C15.3411 14.9199 15.5479 15.5253 16.3227 15.4257ZM10.625 13.2856C9.81776 13.2657 9.50136 13.8287 9.52129 14.3818C9.54371 14.9747 9.89001 15.5004 10.6972 15.4431C11.4546 15.3883 11.7211 14.8551 11.6962 14.2996C11.6713 13.729 11.3225 13.2009 10.625 13.2856ZM8.99561 15.0868C8.98814 14.5587 8.87105 14.0629 8.54717 13.6319C8.35534 13.3753 8.12862 13.1635 7.78233 13.2557C7.44101 13.3479 7.33887 13.6543 7.29153 13.9607C7.21181 14.4914 7.34136 14.9922 7.59299 15.4555C7.77984 15.8018 8.02897 16.2378 8.45748 16.1357C8.92336 16.0261 9.00807 15.5378 8.99561 15.0843V15.0868Z" fill="#F3C65F"/>
<path d="M15.8596 17.6054C15.6204 17.1919 15.2168 17.3314 14.8705 17.3314C12.5859 17.3214 10.2989 17.3314 8.01432 17.3189C7.7602 17.3189 7.30678 17.4983 7.32422 17.0075C7.33917 16.6014 7.74526 16.7609 7.98443 16.7584C8.92865 16.7409 9.87287 16.731 10.8196 16.7584C11.7015 16.7858 12.5311 16.6886 13.1565 15.9811C13.4156 15.6896 13.5999 15.7917 13.8266 16.0259C14.3947 16.6164 15.1097 16.7808 15.9069 16.7609C16.9732 16.7335 18.0395 16.7559 19.1058 16.7609C19.34 16.7609 19.6539 16.7061 19.6165 17.0872C19.5866 17.3937 19.3001 17.3115 19.1058 17.3164C18.4954 17.3314 17.8875 17.3239 17.2771 17.3314C16.9807 17.3339 16.6493 17.2616 16.4899 17.6328C16.2781 17.6254 16.0688 17.6204 15.8571 17.6104L15.8596 17.6054Z" fill="#EDCF73"/>
<path d="M18.9883 11.1406C18.5249 11.1331 18.5946 10.6648 18.333 10.3982C18.1287 10.7196 17.9294 11.031 17.7351 11.3474C17.0325 12.481 16.036 12.481 15.3434 11.33C14.7281 10.3035 14.1451 9.25964 13.5447 8.21577C12.8247 8.71902 12.9193 9.75542 12.0474 10.007C12.0748 9.07279 12.6677 8.39764 13.1959 7.73743C13.5272 7.32387 13.8461 7.73743 14.0355 8.05632C14.6035 9.02546 15.1491 10.007 15.7146 10.9762C16.2627 11.9154 16.8033 11.9104 17.3689 10.9762C17.4635 10.8192 17.5507 10.6598 17.6554 10.5103C17.8796 10.1839 17.9892 9.54615 18.5298 9.84013C18.9484 10.0668 19.2299 10.5701 18.9883 11.1431V11.1406Z" fill="#16140F"/>
<path d="M19.347 13.2632C19.4267 12.9244 19.5039 12.5856 19.5812 12.2443C20.0097 12.334 20.3759 12.0749 20.9564 11.888C20.493 13.3928 20.1592 14.758 19.6335 16.0436C19.4242 16.5543 18.7241 16.2603 18.2358 16.2105C18.2358 16.1632 18.2558 16.1258 18.2956 16.0984C18.6942 16.2852 18.916 15.9987 19.1302 15.762C19.6933 15.1467 19.7705 14.1252 19.3445 13.2632H19.347Z" fill="#CA9254"/>
<path d="M13.5276 14.3893C13.1564 14.2124 12.8998 13.9333 12.8873 13.6269C12.8724 13.2781 13.1315 12.8596 13.4803 12.8521C13.7792 12.8471 14.0159 13.2457 14.0334 13.5846C14.0508 13.9408 13.7319 14.1401 13.5276 14.3893Z" fill="#CA646C"/>
<path d="M13.1312 12.1619C12.9593 12.4584 12.8397 12.8645 12.4759 12.9617C12.2567 13.0214 12.1969 12.6976 12.1944 12.4833C12.1894 12.0797 12.4137 11.863 12.7973 11.8206C13.0066 11.7982 13.1486 11.8954 13.1312 12.1619Z" fill="#CA646C"/>
<path d="M14.7751 12.3812C14.7801 12.7125 14.6754 13.024 14.5035 12.9791C14.1099 12.872 13.9156 12.4883 13.786 12.1196C13.7063 11.8929 13.9231 11.7957 14.1049 11.8032C14.5309 11.8181 14.7552 12.0648 14.7751 12.3837V12.3812Z" fill="#CA646C"/>
<path d="M16.3226 15.4255C15.5478 15.5276 15.3385 14.9222 15.204 14.3841C15.0744 13.8758 15.782 13.2929 16.365 13.2804C17.1323 13.263 17.4337 13.8385 17.4238 14.3791C17.4138 14.9122 17.1099 15.5102 16.3226 15.4255Z" fill="#16140F"/>
<path d="M10.6251 13.2831C11.3276 13.2009 11.6714 13.7266 11.6963 14.2971C11.7212 14.8502 11.4572 15.3858 10.6973 15.4406C9.89011 15.4979 9.54381 14.9747 9.52139 14.3793C9.50146 13.8262 9.81786 13.2632 10.6251 13.2831Z" fill="#16140F"/>
<path d="M19.3469 13.2631C19.7729 14.1251 19.6932 15.1466 19.1327 15.7619C18.9184 15.9986 18.6967 16.2851 18.2981 16.0983C17.6952 15.3907 17.8845 14.6508 18.2233 13.9133C18.4426 13.4375 18.7614 13.1136 19.3469 13.2631ZM19.0455 13.7016C18.3653 14.5561 18.318 14.8077 18.6468 15.5377C19.0754 15.027 19.2622 14.4864 19.0455 13.7016Z" fill="#16140F"/>
<path d="M8.99536 15.0816C9.00782 15.5351 8.92062 16.0209 8.45723 16.133C8.02872 16.2326 7.78208 15.8016 7.59273 15.4529C7.3436 14.9895 7.21405 14.4862 7.29128 13.958C7.33613 13.6516 7.43827 13.3452 7.78208 13.253C8.12837 13.1583 8.35509 13.3726 8.54692 13.6292C8.87079 14.0602 8.9854 14.556 8.99536 15.0841V15.0816ZM7.8618 13.6043C7.75218 14.4762 7.78706 15.0592 8.35509 15.6023C8.67149 14.8599 8.42734 14.3293 7.8618 13.6043Z" fill="#16140F"/>
<path d="M19.0456 13.7042C19.2648 14.4889 19.0755 15.0296 18.6469 15.5403C18.3156 14.8103 18.3629 14.5587 19.0456 13.7042Z" fill="#CA646C"/>
<path d="M7.86207 13.6069C8.42761 14.3343 8.67425 14.8625 8.35536 15.6049C7.78733 15.0618 7.75245 14.4788 7.86207 13.6069Z" fill="#CA646C"/>
<defs>
<clipPath id="clip0_1189_5242">
<rect width="25" height="25" fill="white" transform="translate(1.11816 1.12604)"/>
</clipPath>
</defs>
</svg>

<svg width="27" height="27" fill="none" xmlns="http://www.w3.org/2000/svg"><g opacity=".69" clip-path="url(#a)"><path d="M13.618 26.126c6.904 0 12.5-5.596 12.5-12.5s-5.596-12.5-12.5-12.5c-6.903 0-12.5 5.596-12.5 12.5s5.597 12.5 12.5 12.5z" fill="#FFD015"/><path d="M13.618 24.236c5.86 0 10.61-4.75 10.61-10.61 0-5.86-4.75-10.61-10.61-10.61-5.86 0-10.61 4.75-10.61 10.61 0 5.86 4.75 10.61 10.61 10.61z" fill="#FFC501"/><path d="M19.168 4.57a10.555 10.555 0 0 1 1.67 5.716c0 5.858-4.749 10.61-10.61 10.61-2.036 0-3.934-.573-5.55-1.566a10.597 10.597 0 0 0 8.94 4.895c5.858 0 10.61-4.75 10.61-10.61 0-3.825-2.025-7.176-5.057-9.041l-.003-.003z" fill="#F5B611"/><path d="M4.868 14.597a9.366 9.366 0 0 1 16.79-5.709A9.366 9.366 0 1 0 6.115 19.267 9.31 9.31 0 0 1 4.87 14.6l-.003-.003z" fill="#FFD453"/></g><circle cx="13.618" cy="13.126" r="12" stroke="#FFFEFE" stroke-width="2"/><path d="M21.916 11.04c-.493.67-.543 1.508-.85 2.25-.14.337.23.536.361.783.374.702-.037 1.33-.493 1.432-.81.18-.864.648-.802 1.216.1.917-.301 1.216-1.154 1.104-.824-.11-1.686.216-2.488-.197.16-.369.49-.297.787-.302.61-.007 1.218 0 1.829-.015.194-.005.48.078.51-.229.038-.38-.276-.324-.51-.326-1.067-.008-2.136-.027-3.2 0-.799.02-1.514-.145-2.08-.735-.224-.234-.41-.336-.67-.045-.625.708-1.452.805-2.337.777a59.683 59.683 0 0 0-2.835 0c-.239.005-.645-.157-.66.25-.017.49.434.31.69.31 2.285.016 4.572.003 6.856.013.347 0 .75-.14.99.274-.245.344-.611.212-.927.215-2.345.01-4.692-.025-7.033.022-.835.018-1.174-.241-1.12-1.089.033-.533.143-1.116-.746-1.245-.38-.055-.917-.685-.59-1.146.694-.98.151-1.816-.046-2.726-.094-.44-.735-1.016-.045-1.343.588-.276.698.506.997.835.222.242.351.615.742.6.461-.015.526-.438.675-.76.025-.054.033-.12.065-.169.24-.354.155-1.006.758-1.011.513-.003.56.568.8.897.09.122.156.259.236.388.496.78.997.79 1.515.033.164-.242.249-.584.66-.501-.05.727-.384 1.328-1.081 1.51-1.343.346-1.49-1.002-2.11-1.697-.399.503-.394 1.15-.84 1.557-.538.493-1.114.107-1.751-.037.12.398.181.692.296.964.47 1.108.28 2.78 1.338 3.261 1.056.48 2.506.105 3.787.09.618-.008 1.076-.332 1.512-.743.274-.259.301-.423.062-.727a20.947 20.947 0 0 1-1.2-1.717c-.317-.5-.217-.994.181-1.415.369-.389 2.265-.498 2.758-.152.429.302.66.723.513 1.26-.054.2-.179.384-.296.559-.237.351-.493.692-.738 1.041-.605.862-.545 1.146.41 1.652.258.137.572.237.864.242.909.017 1.82-.02 2.73-.038.49.053 1.191.347 1.398-.167.525-1.288.86-2.653 1.323-4.155-.583.187-.95.443-1.376.356-.214-.11-.33-.261-.209-.51.795.196 1.094-.39 1.443-.902.261-.384.485-.868 1.098-.521v.732l.003-.002zm-8.389 3.347c.205-.25.521-.444.506-.805-.017-.339-.254-.74-.553-.733-.346.008-.608.426-.593.775.013.307.27.583.64.763zm-.393-2.23c.017-.264-.127-.364-.334-.341-.384.044-.608.261-.603.662 0 .215.065.538.282.479.363-.098.485-.506.655-.8zm1.642.222c-.023-.32-.245-.566-.67-.58-.182-.008-.4.089-.32.316.13.368.327.752.718.859.17.047.274-.264.272-.598v.003z" fill="#16140F"/><path d="M19.375 11.736c-.125.25-.008.399.209.51-.08.34-.157.678-.234 1.02-.588-.15-.907.177-1.124.65-.339.737-.528 1.477.075 2.185a.135.135 0 0 0-.06.112c-.91.017-1.821.055-2.73.037a2.003 2.003 0 0 1-.865-.241c-.954-.506-1.014-.793-.409-1.652.245-.346.501-.688.738-1.041.117-.175.244-.362.296-.559.147-.538-.084-.959-.513-1.26-.493-.347-2.39-.237-2.758.152-.398.418-.498.914-.182 1.415.374.59.768 1.168 1.201 1.716.242.307.214.469-.062.728-.434.413-.895.737-1.512.742-1.279.013-2.728.389-3.787-.09-1.06-.48-.867-2.154-1.338-3.26-.115-.27-.177-.564-.297-.965.638.145 1.211.53 1.752.038.443-.406.443-1.054.84-1.557.62.695.767 2.043 2.11 1.696.697-.18 1.031-.78 1.08-1.51.08-.199.163-.398.245-.595.872-.252.777-1.288 1.497-1.791.6 1.041 1.184 2.087 1.8 3.114.692 1.153 1.688 1.15 2.39.017.198-.316.397-.63.599-.949.264.267.192.735.655.742.057.245.187.441.386.596h-.002zm-3.052 3.69c.787.084 1.09-.516 1.1-1.047.01-.538-.29-1.116-1.058-1.098-.583.012-1.288.595-1.161 1.103.137.536.344 1.141 1.119 1.042zm-5.698-2.14c-.807-.02-1.124.543-1.104 1.096.023.593.369 1.118 1.176 1.061.758-.055 1.024-.588 1-1.143-.026-.571-.374-1.1-1.072-1.014zm-1.63 1.8c-.007-.527-.124-1.023-.448-1.454-.192-.257-.418-.468-.765-.376-.341.092-.443.398-.49.705-.08.53.05 1.031.301 1.495.187.346.436.782.864.68.466-.11.551-.598.539-1.052v.003z" fill="#F3C65F"/><path d="M15.86 17.605c-.24-.413-.643-.274-.99-.274-2.284-.01-4.571 0-6.856-.012-.254 0-.707.18-.69-.311.015-.407.421-.247.66-.25a59.683 59.683 0 0 1 2.836 0c.881.028 1.711-.07 2.336-.777.26-.291.444-.19.67.045.569.59 1.284.755 2.08.735 1.067-.027 2.133-.005 3.2 0 .234 0 .548-.055.51.326-.03.307-.316.224-.51.23-.61.014-1.219.007-1.829.014-.296.003-.628-.07-.787.302-.212-.008-.421-.013-.633-.023l.003-.005z" fill="#EDCF73"/><path d="M18.988 11.14c-.463-.007-.393-.475-.655-.742-.204.322-.404.633-.598.95-.703 1.133-1.699 1.133-2.392-.018-.615-1.027-1.198-2.07-1.798-3.114-.72.503-.626 1.54-1.498 1.791.028-.934.62-1.61 1.149-2.27.331-.413.65 0 .84.32.568.968 1.113 1.95 1.679 2.92.548.938 1.088.933 1.654 0 .095-.158.182-.317.286-.467.225-.326.334-.964.875-.67.418.227.7.73.458 1.303v-.002z" fill="#16140F"/><path d="M19.347 13.263c.08-.339.157-.677.234-1.019.429.09.795-.17 1.375-.356-.463 1.505-.797 2.87-1.322 4.156-.21.51-.91.216-1.398.166a.13.13 0 0 1 .06-.112c.398.187.62-.1.834-.336.563-.615.64-1.637.215-2.499h.002z" fill="#CA9254"/><path d="M13.528 14.39c-.372-.178-.628-.457-.64-.763-.016-.349.244-.767.592-.775.3-.005.536.394.553.733.018.356-.301.555-.505.804zM13.131 12.162c-.172.296-.291.702-.655.8-.22.06-.28-.264-.282-.479-.005-.403.22-.62.603-.662.21-.023.352.074.334.34zM14.775 12.381c.005.332-.1.643-.271.598-.394-.107-.588-.49-.718-.86-.08-.226.137-.323.319-.316.426.015.65.262.67.58v-.002z" fill="#CA646C"/><path d="M16.323 15.425c-.775.103-.985-.503-1.119-1.04-.13-.51.578-1.092 1.161-1.105.767-.017 1.069.559 1.059 1.1-.01.532-.314 1.13-1.101 1.045zM10.625 13.283c.703-.082 1.046.444 1.071 1.014.025.553-.239 1.089-.999 1.144-.807.057-1.153-.466-1.176-1.062-.02-.553.297-1.116 1.104-1.096zM19.347 13.263c.426.862.346 1.884-.214 2.499-.215.237-.436.523-.835.336-.603-.707-.413-1.447-.075-2.185.22-.476.538-.8 1.124-.65zm-.302.439c-.68.854-.727 1.106-.398 1.836.428-.511.615-1.052.399-1.836zM8.995 15.082c.013.453-.074.939-.538 1.051-.428.1-.675-.331-.864-.68-.25-.463-.379-.967-.302-1.495.045-.306.147-.613.491-.705.346-.095.573.12.765.376.324.431.438.927.448 1.455v-.002zm-1.133-1.478c-.11.872-.075 1.455.493 1.998.316-.742.072-1.273-.493-1.998z" fill="#16140F"/><path d="M19.046 13.704c.219.785.03 1.326-.4 1.836-.33-.73-.283-.981.4-1.836zM7.862 13.607c.566.727.812 1.256.493 1.998-.568-.543-.603-1.126-.493-1.998z" fill="#CA646C"/><defs><clipPath id="a"><path fill="#fff" transform="translate(1.118 1.126)" d="M0 0h25v25H0z"/></clipPath></defs></svg>
